svg/RightHanded/pencil.svg

<?xml version="1.0" encoding="UTF-8" standalone="no"?>
<!-- Created with Inkscape (http://www.inkscape.org/) -->

<svg
   xmlns:dc="http://purl.org/dc/elements/1.1/"
   xmlns:cc="http://creativecommons.org/ns#"
   xmlns:rdf="http://www.w3.org/1999/02/22-rdf-syntax-ns#"
   xmlns:svg="http://www.w3.org/2000/svg"
   xmlns="http://www.w3.org/2000/svg"
   xmlns:xlink="http://www.w3.org/1999/xlink"
   version="1.0"
   width="500"
   height="500"
   viewBox="0 0 1000 1000"
   id="page"
   xml:space="preserve"><metadata
     id="metadata17"><rdf:RDF><cc:Work
         rdf:about=""><dc:format>image/svg+xml</dc:format><dc:type
           rdf:resource="http://purl.org/dc/dcmitype/StillImage" /><dc:title></dc:title></cc:Work></rdf:RDF></metadata><defs
     id="defs38"><linearGradient
       id="linearGradient2075"><stop
         id="stop2077"
         style="stop-color:#999999;stop-opacity:1"
         offset="0" /><stop
         id="stop2079"
         style="stop-color:#555555;stop-opacity:1"
         offset="1" /></linearGradient><linearGradient
       x1="303.68558"
       y1="439.03244"
       x2="303.68558"
       y2="593.22528"
       id="linearGradient4623"
       xlink:href="#linearGradient2218"
       gradientUnits="userSpaceOnUse"
       gradientTransform="matrix(1.088125,0,0,1.113779,-35.25114,-60.23362)" /><linearGradient
       id="linearGradient2218"><stop
         id="stop2220"
         style="stop-color:#999933;stop-opacity:1"
         offset="0" /><stop
         id="stop2222"
         style="stop-color:#c9c900;stop-opacity:1"
         offset="1" /></linearGradient><linearGradient
       x1="321.57327"
       y1="160.64301"
       x2="321.57327"
       y2="546.28387"
       id="linearGradient4620"
       xlink:href="#linearGradient2075"
       gradientUnits="userSpaceOnUse" /><filter
       x="-0.24407861"
       y="-0.23605546"
       width="1.4881572"
       height="1.4721109"
       color-interpolation-filters="sRGB"
       id="filter3857"><feGaussianBlur
         id="feGaussianBlur3859"
         stdDeviation="21.557089" /></filter><linearGradient
       x1="321.57327"
       y1="160.64301"
       x2="321.57327"
       y2="546.28387"
       id="linearGradient3008"
       xlink:href="#linearGradient2075"
       gradientUnits="userSpaceOnUse" /><linearGradient
       x1="303.68558"
       y1="439.03244"
       x2="303.68558"
       y2="593.22528"
       id="linearGradient3012"
       xlink:href="#linearGradient2218"
       gradientUnits="userSpaceOnUse"
       gradientTransform="matrix(1.088125,0,0,1.113779,-35.25114,-60.23362)" /></defs><path
     d="m 329.53125,301.4375 c -5.36784,0.029 -10.66406,0.78906 -15.65625,2.40625 -5.646,3.753 -45.5,42.5 -59,60.5 -6.11173,8.14865 -47.52376,62.78717 -46.65625,65.5 -9.52694,17.52604 -25.31374,86.15501 -21.15625,90.3125 4.34192,4.34192 93.80359,-23.60925 112.5,-36.1875 -0.006,0.0622 0.007,0.12532 0,0.1875 -0.3215,2.8115 59.89825,-57.63475 68.46875,-69.90625 12.865,-18.421 30.1825,-48.009 30.3125,-56.375 0.45418,-29.24797 -36.00903,-56.61494 -68.8125,-56.4375 z"
     transform="matrix(2.4,0,0,2.4,-201.76691,-476.63357)"
     id="path4602-8"
     style="opacity:0.15;fill:#111111;fill-opacity:1;fill-rule:evenodd;stroke:none;filter:url(#filter3857)" /><path
     d="m 336.31686,432.07441 c -26.3256,95.80891 -49.72613,158.68351 -38.02586,167.6656 11.70026,8.98209 213.52983,-65.86863 213.52983,-65.86863 0,0 -29.25064,-41.91639 -70.20155,-71.85668 -40.95103,-29.94029 -96.52723,-38.92238 -105.30242,-29.94029 z"
     id="path4602"
     style="opacity:0.75;fill:url(#linearGradient3012);fill-opacity:1;fill-rule:evenodd;stroke:none" /><path
     d="m 517.82527,533.12136 c -27.643,23.623 -219.53401,83.9725 -228.53401,74.9725 -9,-9 28.76701,-169.15051 46.76701,-187.15051"
     id="path4584"
     style="opacity:0.75;fill:none;stroke:#000000;stroke-width:20;stroke-linecap:round;stroke-linejoin:round;stroke-miterlimit:3.13260007" /><path
     d="m 542.93426,175.47086 c -11.292,7.506 -91,85 -118,121 -12.557,16.742 -99.643,131.623 -93,131.223 30.536,-1.841 76.20649,7.63299 106.179,27.4 27,18 79.755,49.698 76.178,81 -0.643,5.623 119.771,-115.238 136.912,-139.781 25.73,-36.842 60.414,-96.042 60.674,-112.774 1.057,-68.068 -97.943,-131.068 -168.943,-108.068"
     id="path4586"
     style="opacity:0.75;fill:url(#linearGradient3008);fill-opacity:1;stroke:#000000;stroke-width:20;stroke-linecap:round;stroke-linejoin:round;stroke-miterlimit:3.13260007" /></svg>

<?xml version="1.0" encoding="UTF-8" standalone="no"?>
<!-- Created with Inkscape (http://www.inkscape.org/) -->
<svg
   xmlns:svg="http://www.w3.org/2000/svg"
   xmlns="http://www.w3.org/2000/svg"
   xmlns:xlink="http://www.w3.org/1999/xlink"
   version="1.0"
   width="500"
   height="500"
   viewBox="0 0 1000 1000"
   id="page"
   xml:space="preserve"><defs
     id="defs38"><linearGradient
       id="linearGradient2075"><stop
         id="stop2077"
         style="stop-color:#999999;stop-opacity:1"
         offset="0" /><stop
         id="stop2079"
         style="stop-color:#555555;stop-opacity:1"
         offset="1" /></linearGradient><linearGradient
       x1="303.68558"
       y1="439.03244"
       x2="303.68558"
       y2="593.22528"
       id="linearGradient4623"
       xlink:href="#linearGradient2218"
       gradientUnits="userSpaceOnUse"
       gradientTransform="matrix(1.088125,0,0,1.113779,-35.25114,-60.23362)" /><linearGradient
       id="linearGradient2218"><stop
         id="stop2220"
         style="stop-color:#999933;stop-opacity:1"
         offset="0" /><stop
         id="stop2222"
         style="stop-color:#c9c900;stop-opacity:1"
         offset="1" /></linearGradient><linearGradient
       x1="321.57327"
       y1="160.64301"
       x2="321.57327"
       y2="546.28387"
       id="linearGradient4620"
       xlink:href="#linearGradient2075"
       gradientUnits="userSpaceOnUse" /></defs><path
     d="M 336.31686,432.07441 C 309.99126,527.88332 286.59073,590.75792 298.291,599.74001 C 309.99126,608.7221 511.82083,533.87138 511.82083,533.87138 C 511.82083,533.87138 482.57019,491.95499 441.61928,462.0147 C 400.66825,432.07441 345.09205,423.09232 336.31686,432.07441 z"
     id="path4602"
     style="fill:url(#linearGradient4623);fill-opacity:1;fill-rule:evenodd;stroke:none;stroke-width:1px;stroke-linecap:butt;stroke-linejoin:miter;stroke-opacity:1" /><path
     d="M 517.82527,533.12136 C 490.18227,556.74436 298.29126,617.09386 289.29126,608.09386 C 280.29126,599.09386 318.05827,438.94335 336.05827,420.94335"
     id="path4584"
     style="opacity:1;fill:none;stroke:#000000;stroke-width:20;stroke-linecap:round;stroke-linejoin:round;stroke-miterlimit:3.13260007" /><path
     d="M 542.93426,175.47086 C 531.64226,182.97686 451.93426,260.47086 424.93426,296.47086 C 412.37726,313.21286 325.29126,428.09386 331.93426,427.69386 C 362.47026,425.85286 408.14075,435.32685 438.11326,455.09386 C 465.11326,473.09386 517.86826,504.79186 514.29126,536.09386 C 513.64826,541.71686 634.06226,420.85586 651.20326,396.31286 C 676.93326,359.47086 711.61726,300.27086 711.87726,283.53886 C 712.93426,215.47086 613.93426,152.47086 542.93426,175.47086"
     id="path4586"
     style="opacity:1;fill:url(#linearGradient4620);fill-opacity:1;stroke:#000000;stroke-width:20;stroke-linecap:round;stroke-linejoin:round;stroke-miterlimit:3.13260007" /></svg>
